public/logos/RV.svg

<?xml version="1.0" encoding="UTF-8"?>
<svg xmlns="http://www.w3.org/2000/svg" xmlns:xlink="http://www.w3.org/1999/xlink" width="117.8pt" height="59pt" viewBox="0 0 117.8 59" version="1.1">
<defs>
<clipPath id="clip1">
  <path d="M 108 0 L 117.800781 0 L 117.800781 9 L 108 9 Z M 108 0 "/>
</clipPath>
</defs>
<g id="surface1">
<g clip-path="url(#clip1)" clip-rule="nonzero">
<path style=" stroke:none;fill-rule:nonzero;fill:rgb(92.700195%,11.358643%,15.148926%);fill-opacity:1;" d="M 113.535156 6.371094 C 113.535156 6.082031 113.675781 6.035156 113.941406 6.183594 C 114.429688 6.464844 114.949219 6.757812 114.949219 6.757812 C 114.964844 6.601562 115.105469 6.457031 115.398438 6.53125 C 115.675781 6.601562 115.980469 6.664062 115.980469 6.664062 C 115.980469 6.664062 115.816406 6.277344 115.738281 6.113281 C 115.605469 5.804688 115.730469 5.65625 115.863281 5.609375 C 115.863281 5.609375 115.675781 5.476562 115.546875 5.390625 C 115.28125 5.199219 115.34375 5.011719 115.605469 4.902344 C 115.957031 4.742188 116.390625 4.546875 116.390625 4.546875 C 116.246094 4.460938 116.089844 4.222656 116.269531 3.957031 C 116.453125 3.679688 116.722656 3.304688 116.722656 3.304688 C 116.722656 3.304688 116.238281 3.3125 115.925781 3.304688 C 115.636719 3.304688 115.5625 3.066406 115.570312 2.894531 C 115.570312 2.894531 115.101562 3.242188 114.769531 3.46875 C 114.484375 3.664062 114.234375 3.476562 114.273438 3.140625 C 114.34375 2.613281 114.398438 2.03125 114.398438 2.03125 C 114.226562 2.15625 113.929688 2.148438 113.792969 1.855469 C 113.597656 1.421875 113.367188 0.914062 113.367188 0.914062 C 113.367188 0.914062 113.140625 1.421875 112.945312 1.855469 C 112.8125 2.148438 112.511719 2.15625 112.339844 2.03125 C 112.339844 2.03125 112.402344 2.613281 112.464844 3.140625 C 112.511719 3.476562 112.253906 3.664062 111.96875 3.46875 C 111.632812 3.234375 111.164062 2.894531 111.164062 2.894531 C 111.164062 3.066406 111.097656 3.304688 110.8125 3.304688 C 110.496094 3.3125 110.019531 3.304688 110.019531 3.304688 C 110.019531 3.304688 110.285156 3.679688 110.46875 3.957031 C 110.648438 4.230469 110.480469 4.46875 110.347656 4.546875 C 110.347656 4.546875 110.789062 4.75 111.136719 4.902344 C 111.394531 5.019531 111.457031 5.199219 111.191406 5.390625 C 111.0625 5.476562 110.875 5.609375 110.875 5.609375 C 111.007812 5.65625 111.136719 5.804688 111 6.113281 C 110.921875 6.277344 110.765625 6.664062 110.765625 6.664062 C 110.765625 6.664062 111.070312 6.59375 111.347656 6.53125 C 111.644531 6.457031 111.78125 6.601562 111.796875 6.757812 C 111.796875 6.757812 112.308594 6.464844 112.804688 6.183594 C 113.070312 6.027344 113.210938 6.082031 113.210938 6.371094 L 113.210938 7.082031 C 113.210938 7.488281 113.140625 7.9375 112.992188 8.179688 C 111.105469 7.96875 109.539062 6.410156 109.539062 4.351562 C 109.539062 2.234375 111.253906 0.511719 113.367188 0.511719 C 115.484375 0.511719 117.199219 2.226562 117.199219 4.351562 C 117.199219 6.332031 115.707031 7.945312 113.800781 8.15625 L 113.800781 8.675781 C 116.042969 8.464844 117.796875 6.609375 117.796875 4.351562 C 117.796875 1.953125 115.824219 0 113.378906 0 C 110.929688 0 108.949219 1.953125 108.949219 4.351562 C 108.949219 6.464844 110.480469 8.21875 112.519531 8.621094 C 112.863281 8.683594 113.078125 8.738281 113.257812 8.96875 C 113.480469 8.558594 113.527344 7.695312 113.527344 7.199219 L 113.527344 6.371094 "/>
</g>
<path style=" stroke:none;fill-rule:nonzero;fill:rgb(92.700195%,11.358643%,15.148926%);fill-opacity:1;" d="M 102.535156 2.902344 L 103.347656 4.824219 L 101.726562 4.824219 Z M 89.683594 2.902344 L 90.492188 4.824219 L 88.847656 4.824219 Z M 76.113281 2.902344 L 76.921875 4.824219 L 75.300781 4.824219 Z M 51.726562 2.902344 L 52.511719 4.824219 L 50.890625 4.824219 Z M 95.214844 2.582031 L 95.875 2.582031 C 96.296875 2.582031 96.613281 2.621094 96.832031 2.707031 C 97.0625 2.785156 97.242188 2.941406 97.398438 3.148438 C 97.628906 3.453125 97.746094 3.839844 97.746094 4.304688 C 97.746094 4.894531 97.589844 5.332031 97.304688 5.632812 C 97.023438 5.921875 96.597656 6.074219 96.03125 6.074219 L 95.21875 6.074219 L 95.21875 2.582031 Z M 60.597656 2.554688 L 61.214844 2.554688 C 62.039062 2.554688 62.613281 2.644531 62.613281 3.273438 C 62.613281 3.910156 62.339844 4.128906 61.0625 4.128906 L 60.597656 4.128906 Z M 102.175781 1.917969 L 100.113281 6.765625 L 100.898438 6.765625 L 101.46875 5.460938 L 103.628906 5.460938 L 104.171875 6.765625 L 105.453125 6.765625 L 103.417969 1.917969 Z M 94.109375 1.917969 L 94.109375 6.765625 L 96.273438 6.765625 C 97.101562 6.765625 97.761719 6.570312 98.21875 6.128906 C 98.679688 5.6875 98.910156 5.058594 98.910156 4.265625 C 98.917969 3.515625 98.707031 2.941406 98.273438 2.539062 C 97.839844 2.140625 97.21875 1.933594 96.40625 1.925781 L 94.117188 1.925781 Z M 89.289062 1.917969 L 87.253906 6.765625 L 88.039062 6.765625 L 88.582031 5.460938 L 90.769531 5.460938 L 91.308594 6.765625 L 92.5625 6.765625 L 90.546875 1.917969 Z M 80.566406 1.917969 L 80.566406 6.765625 L 81.476562 6.765625 L 81.476562 3.15625 L 84.53125 6.765625 L 85.6875 6.765625 L 85.6875 1.917969 L 84.773438 1.917969 L 84.773438 5.390625 L 81.847656 1.917969 Z M 75.71875 1.917969 L 73.679688 6.765625 L 74.46875 6.765625 L 75.027344 5.460938 L 77.191406 5.460938 L 77.734375 6.765625 L 79.015625 6.765625 L 76.976562 1.917969 Z M 59.570312 1.917969 L 59.570312 6.765625 L 60.597656 6.765625 L 60.597656 4.773438 L 61.628906 4.773438 L 63.179688 6.765625 L 64.460938 6.765625 L 62.714844 4.507812 C 63.09375 4.3125 63.195312 4.230469 63.398438 3.980469 C 63.605469 3.746094 63.683594 3.414062 63.667969 3.121094 C 63.621094 2.445312 63.070312 1.925781 61.851562 1.917969 L 59.5625 1.917969 Z M 56.078125 1.917969 L 56.078125 6.765625 L 57.183594 6.765625 L 57.183594 1.917969 Z M 51.332031 1.917969 L 49.265625 6.757812 L 50.074219 6.757812 L 50.617188 5.453125 L 52.78125 5.453125 L 53.347656 6.757812 L 54.597656 6.757812 L 52.582031 1.910156 L 51.332031 1.910156 Z M 70.480469 1.769531 C 69.511719 1.769531 68.742188 1.996094 68.222656 2.429688 C 67.703125 2.871094 67.433594 3.515625 67.433594 4.351562 C 67.433594 5.152344 67.679688 5.765625 68.199219 6.222656 C 68.71875 6.679688 69.457031 6.90625 70.386719 6.914062 C 71.148438 6.914062 71.808594 6.804688 72.328125 6.59375 L 72.328125 5.851562 C 71.777344 6.097656 71.15625 6.199219 70.605469 6.199219 C 69.976562 6.199219 69.496094 6.035156 69.152344 5.703125 C 68.796875 5.371094 68.640625 4.917969 68.640625 4.328125 C 68.640625 3.730469 68.796875 3.25 69.128906 2.925781 C 69.449219 2.597656 69.90625 2.460938 70.503906 2.460938 C 70.976562 2.460938 71.628906 2.566406 72.320312 2.785156 L 72.320312 1.972656 C 71.707031 1.839844 71.101562 1.777344 70.480469 1.769531 "/>
<path style=" stroke:none;fill-rule:nonzero;fill:rgb(62.785339%,9.407043%,19.534302%);fill-opacity:1;" d="M 18.347656 14.058594 C 15.335938 15.324219 11.480469 17.109375 9.664062 20.082031 C 8.316406 22.285156 8.46875 22.59375 8.46875 28.902344 C 8.46875 30.648438 8.316406 31.347656 7.320312 32.410156 C 6.398438 33.394531 5.847656 33.722656 5.226562 33.828125 C 3.109375 34.171875 0.00390625 19.667969 0.00390625 17.769531 C 0.00390625 17.277344 -0.0351562 17.195312 0.191406 16.859375 C 0.523438 16.386719 1.207031 15.75 1.625 15.75 C 3.480469 15.75 5.675781 18.203125 5.675781 18.203125 C 5.675781 18.203125 7.183594 16.773438 10.945312 13.941406 C 13.539062 11.988281 15.894531 10.445312 17.160156 10.445312 C 18.632812 10.445312 20.125 11.832031 20.125 12.5 C 20.125 13.328125 19.363281 13.53125 18.371094 14.074219 "/>
<path style=" stroke:none;fill-rule:nonzero;fill:rgb(62.785339%,9.407043%,19.534302%);fill-opacity:1;" d="M 25.222656 15.144531 C 24.75 15.144531 24.191406 15.394531 23.523438 15.90625 C 21.925781 17.125 20.078125 20.734375 20.078125 23.585938 C 20.078125 25.78125 21.140625 27.039062 22.03125 27.699219 C 23.148438 28.53125 24.453125 28.839844 25.300781 28.839844 C 25.355469 28.839844 25.410156 28.839844 25.460938 28.839844 C 28.589844 28.679688 30.964844 26.023438 32.105469 24.449219 C 33.851562 22.035156 34.765625 19.429688 34.765625 18.109375 C 34.765625 15.246094 33.074219 14.796875 32.523438 14.648438 C 32.113281 14.539062 31.808594 14.488281 31.546875 14.488281 C 31.179688 14.488281 30.871094 14.578125 30.367188 14.742188 C 30.265625 14.773438 30.132812 14.820312 29.980469 14.882812 C 29.496094 15.066406 28.890625 15.292969 28.449219 15.292969 C 28.242188 15.292969 28.078125 15.238281 27.960938 15.136719 C 27.867188 15.054688 27.765625 14.929688 27.71875 14.742188 C 26.976562 15.207031 26.578125 15.402344 26.222656 15.402344 C 26.082031 15.402344 25.945312 15.371094 25.828125 15.300781 C 25.648438 15.199219 25.460938 15.144531 25.238281 15.144531 M 24.773438 33.78125 C 19.402344 33.78125 16.949219 28.980469 16.949219 24.511719 C 16.949219 20.460938 18.015625 17.257812 20.425781 14.136719 C 22.09375 11.964844 23.894531 10.792969 24.734375 10.792969 C 24.773438 10.792969 24.804688 10.792969 24.839844 10.800781 C 26.851562 11.042969 28.101562 12.460938 28.339844 12.742188 C 28.371094 12.78125 28.410156 12.832031 28.433594 12.871094 C 28.976562 12.160156 29.707031 11.453125 30.179688 11.109375 C 31.121094 10.414062 31.65625 10.359375 32.4375 10.359375 C 35.039062 10.359375 37.832031 11.941406 37.832031 15.410156 C 37.832031 18.148438 36.835938 21.5 35.015625 24.867188 C 33.285156 28.058594 31.050781 30.828125 28.871094 32.449219 C 27.652344 33.363281 26.347656 33.785156 24.765625 33.785156 "/>
<path style=" stroke:none;fill-rule:nonzero;fill:rgb(62.785339%,9.407043%,19.534302%);fill-opacity:1;" d="M 38.941406 15.449219 C 38.941406 23.027344 40.28125 29.988281 42.84375 32.675781 C 43.570312 33.433594 44.386719 33.851562 45.296875 33.851562 C 49.460938 33.851562 54.234375 27.492188 55.878906 23.464844 C 56.476562 25.875 57.710938 28.515625 58.859375 30.585938 C 60.007812 32.65625 61.628906 35.195312 62.660156 34.816406 C 63.816406 34.402344 64.601562 32.875 64.832031 32.074219 C 65.140625 31.050781 64.683594 30.886719 62.535156 27.4375 C 60.394531 23.984375 59.113281 18.46875 58.90625 16.738281 C 58.765625 15.480469 58.300781 14.585938 57.066406 15.71875 C 56.304688 16.425781 55.539062 17.085938 55.359375 17.921875 C 55.023438 19.476562 54.046875 21.957031 52.574219 24.199219 C 51.246094 26.234375 47.941406 28.554688 46.535156 28.554688 C 43.441406 28.554688 43.742188 15.113281 43.742188 13.066406 C 43.742188 11.019531 43.316406 10.328125 42.019531 10.328125 C 41.421875 10.328125 40.113281 11.414062 39.476562 12.082031 C 38.832031 12.761719 38.933594 13.328125 38.933594 15.441406 "/>
<path style=" stroke:none;fill-rule:nonzero;fill:rgb(62.785339%,9.407043%,19.534302%);fill-opacity:1;" d="M 78.96875 59 C 74.796875 59 72.109375 55.34375 70.589844 52.273438 C 68.859375 48.78125 68.042969 44.601562 67.789062 42.289062 C 67.695312 41.371094 67.601562 40.347656 67.828125 39.8125 C 68.183594 38.972656 71.933594 36.886719 72.0625 37.195312 C 72.195312 37.5 72.140625 39.222656 72.210938 40.191406 C 72.484375 43.808594 73.257812 47.5 74.320312 50.300781 C 75.484375 53.375 76.875 55.074219 78.261719 55.074219 C 78.960938 55.074219 80.054688 53.5625 81.015625 49.332031 C 81.878906 45.484375 82.382812 42.882812 82.382812 37.933594 C 82.382812 33.582031 81.652344 27.039062 80.738281 26.101562 L 80.636719 26.171875 C 77.695312 28.273438 74.035156 30.878906 68.789062 30.878906 C 64.785156 30.878906 63.359375 26.953125 63.359375 23.277344 C 63.359375 21.011719 64.507812 17.800781 66.285156 15.097656 C 68.277344 12.058594 70.597656 10.320312 72.652344 10.3125 C 74.804688 10.3125 77.503906 11.972656 78.765625 13.507812 C 79.511719 14.417969 79.847656 16.230469 79.394531 16.90625 C 78.929688 17.589844 77.734375 18.1875 76.410156 18.40625 C 76.277344 18.429688 76.152344 18.441406 76.035156 18.441406 C 75.160156 18.441406 74.710938 17.890625 74.320312 17.402344 C 74.21875 17.277344 74.121094 17.15625 74.019531 17.046875 C 73.132812 16.09375 72.335938 15.550781 71.832031 15.550781 C 69.160156 15.550781 67.300781 19.429688 67.300781 22.914062 C 67.300781 26.328125 71.195312 26.425781 71.234375 26.425781 C 73.328125 26.425781 76.417969 25.621094 78.277344 24.589844 C 80.28125 23.480469 81.3125 22.789062 82.359375 21.839844 C 82.492188 21.71875 82.640625 21.65625 82.808594 21.65625 C 84.144531 21.65625 85.578125 25.921875 85.984375 27.226562 C 87.085938 30.765625 87.289062 34.746094 87.289062 37.871094 C 87.289062 41.449219 86.828125 45.886719 85.535156 50.597656 C 84.027344 56.089844 81.761719 59 78.984375 59 "/>
<path style=" stroke:none;fill-rule:nonzero;fill:rgb(62.785339%,9.407043%,19.534302%);fill-opacity:1;" d="M 95.792969 13.75 C 97.613281 13.75 98.917969 14.632812 98.917969 15.6875 C 98.917969 19.085938 95.644531 20.871094 91.195312 20.933594 C 91.359375 16.710938 93.65625 13.75 95.792969 13.75 M 108.980469 25.992188 C 108.523438 26.425781 107.152344 27.636719 105.132812 28.628906 C 103.105469 29.625 101.710938 30.066406 98.28125 29.742188 C 93.757812 29.320312 91.484375 26.519531 91.265625 23.160156 C 97.722656 23.160156 103.261719 20.390625 103.261719 14.59375 C 103.261719 12.375 101.394531 10.25 96.628906 10.25 C 92.796875 10.25 86.597656 14.617188 86.597656 22.710938 C 86.597656 30.804688 92.484375 33.710938 96.316406 33.835938 C 102.433594 34.03125 107.050781 30.835938 108.316406 28.730469 C 108.601562 28.257812 109.679688 25.316406 108.972656 25.984375 "/>
</g>
</svg>

<svg xmlns="http://www.w3.org/2000/svg" width="117.8pt" height="59pt" viewBox="0 0 117.8 59"><defs><clipPath id="a"><path d="M108 0h9.8v9H108Zm0 0"/></clipPath></defs><g clip-path="url(#a)"><path d="M113.535 6.371c0-.289.14-.336.406-.187.489.28 1.008.574 1.008.574.016-.156.156-.301.45-.227.277.07.581.133.581.133s-.164-.387-.242-.55c-.133-.31-.008-.458.125-.505 0 0-.187-.132-.316-.218-.266-.192-.203-.38.058-.489l.786-.355a.404.404 0 0 1-.121-.59c.183-.277.453-.652.453-.652s-.485.007-.797 0c-.29 0-.364-.239-.356-.41 0 0-.468.347-.8.574-.286.195-.536.008-.497-.328.07-.528.125-1.11.125-1.11a.397.397 0 0 1-.605-.176c-.195-.433-.426-.94-.426-.94s-.226.507-.422.94a.397.397 0 0 1-.605.176s.062.582.125 1.11c.047.336-.211.523-.496.328-.336-.235-.805-.574-.805-.574 0 .171-.066.41-.352.41-.316.007-.792 0-.792 0s.265.375.449.652a.41.41 0 0 1-.121.59s.441.203.789.355c.258.118.32.297.054.489-.129.086-.316.218-.316.218.133.047.262.196.125.504-.078.164-.234.551-.234.551l.582-.133c.297-.074.433.07.449.227 0 0 .512-.293 1.008-.574.265-.157.406-.102.406.187v.711c0 .406-.07.856-.219 1.098-1.887-.211-3.453-1.77-3.453-3.828a3.837 3.837 0 0 1 3.828-3.84 3.833 3.833 0 0 1 3.832 3.84 3.823 3.823 0 0 1-3.398 3.804v.52c2.242-.211 3.996-2.067 3.996-4.324 0-2.399-1.973-4.352-4.418-4.352-2.45 0-4.43 1.953-4.43 4.352 0 2.113 1.531 3.867 3.57 4.27.344.062.56.116.739.347.222-.41.27-1.274.27-1.77v-.828" style="stroke:none;fill-rule:nonzero;fill:#ec1d27;fill-opacity:1"/></g><path d="m102.535 2.902.813 1.922h-1.621Zm-12.851 0 .808 1.922h-1.644Zm-13.57 0 .808 1.922H75.3Zm-24.387 0 .785 1.922H50.89Zm43.488-.32h.66c.422 0 .738.04.957.125.23.078.41.234.566.441q.346.458.348 1.157c0 .59-.156 1.027-.441 1.328-.282.289-.707.441-1.274.441h-.812V2.582Zm-34.617-.027h.617c.824 0 1.398.09 1.398.718 0 .637-.273.856-1.55.856h-.465Zm41.578-.637-2.063 4.848h.785l.57-1.305h2.16l.544 1.305h1.281l-2.035-4.848Zm-8.067 0v4.848h2.164c.829 0 1.489-.196 1.946-.637.46-.441.691-1.07.691-1.863q.013-1.125-.637-1.727-.648-.599-1.867-.613h-2.289Zm-4.82 0-2.035 4.848h.785l.543-1.305h2.188l.539 1.305h1.254l-2.016-4.848Zm-8.723 0v4.848h.91v-3.61l3.055 3.61h1.156V1.918h-.914v3.473l-2.925-3.473Zm-4.847 0-2.04 4.848h.79l.558-1.305h2.164l.543 1.305h1.282l-2.04-4.848Zm-16.149 0v4.848h1.028V4.773h1.03l1.552 1.993h1.28l-1.745-2.258c.379-.195.48-.278.683-.528.207-.234.286-.566.27-.859-.047-.676-.598-1.195-1.816-1.203h-2.29Zm-3.492 0v4.848h1.106V1.918Zm-4.746 0-2.066 4.84h.808l.543-1.305h2.164l.567 1.305h1.25L52.582 1.91h-1.25ZM70.48 1.77c-.968 0-1.738.226-2.257.66-.52.441-.79 1.086-.79 1.922 0 .8.247 1.414.766 1.87.52.458 1.258.684 2.188.692.761 0 1.422-.11 1.941-.32v-.742a4.3 4.3 0 0 1-1.723.347c-.628 0-1.109-.164-1.453-.496-.355-.332-.511-.785-.511-1.375 0-.598.156-1.078.488-1.402.32-.328.777-.465 1.375-.465.473 0 1.125.105 1.816.324v-.812a9 9 0 0 0-1.84-.203" style="stroke:none;fill-rule:nonzero;fill:#ec1d27;fill-opacity:1"/><path d="M18.348 14.059c-3.012 1.265-6.868 3.05-8.684 6.023-1.348 2.203-1.195 2.512-1.195 8.82 0 1.746-.153 2.446-1.149 3.508-.922.985-1.472 1.313-2.093 1.418C3.109 34.172.004 19.668.004 17.77c0-.493-.04-.575.187-.91.332-.473 1.016-1.11 1.434-1.11 1.855 0 4.05 2.453 4.05 2.453s1.509-1.43 5.27-4.262c2.594-1.953 4.95-3.496 6.215-3.496 1.473 0 2.965 1.387 2.965 2.055 0 .828-.762 1.031-1.754 1.574M25.223 15.145c-.473 0-1.032.25-1.7.761-1.597 1.219-3.445 4.828-3.445 7.68 0 2.195 1.063 3.453 1.953 4.113 1.117.832 2.422 1.14 3.27 1.14h.16c3.129-.16 5.504-2.816 6.644-4.39 1.747-2.414 2.66-5.02 2.66-6.34 0-2.863-1.69-3.312-2.242-3.46-.41-.11-.714-.16-.976-.16-.367 0-.676.09-1.18.253a5 5 0 0 0-.387.14c-.484.184-1.09.411-1.53.411-.208 0-.372-.055-.49-.156a.76.76 0 0 1-.241-.395c-.742.465-1.14.66-1.496.66a.76.76 0 0 1-.395-.101 1.16 1.16 0 0 0-.59-.156m-.465 18.636c-5.37 0-7.824-4.8-7.824-9.27 0-4.05 1.067-7.253 3.477-10.374 1.668-2.172 3.469-3.344 4.308-3.344.04 0 .07 0 .106.008 2.012.242 3.262 1.66 3.5 1.941.031.04.07.09.094.13.543-.712 1.273-1.419 1.746-1.763.941-.695 1.476-.75 2.258-.75 2.601 0 5.394 1.582 5.394 5.051 0 2.738-.996 6.09-2.816 9.457-1.73 3.192-3.965 5.961-6.145 7.582-1.219.914-2.523 1.336-4.105 1.336M38.941 15.45c0 7.577 1.34 14.538 3.903 17.226.726.758 1.543 1.176 2.453 1.176 4.164 0 8.937-6.36 10.582-10.387.598 2.41 1.832 5.05 2.98 7.12 1.149 2.071 2.77 4.61 3.801 4.231 1.156-.414 1.942-1.941 2.172-2.742.309-1.023-.148-1.187-2.297-4.636-2.14-3.454-3.422-8.97-3.629-10.7-.14-1.258-.605-2.152-1.84-1.02-.761.708-1.527 1.368-1.707 2.204-.336 1.555-1.312 4.035-2.785 6.277-1.328 2.035-4.633 4.356-6.039 4.356-3.094 0-2.793-13.442-2.793-15.489 0-2.046-.426-2.738-1.722-2.738-.598 0-1.907 1.086-2.543 1.754-.645.68-.543 1.246-.543 3.36" style="stroke:none;fill-rule:nonzero;fill:#a01832;fill-opacity:1"/><path d="M78.969 59c-4.172 0-6.86-3.656-8.38-6.727-1.73-3.492-2.546-7.671-2.8-9.984-.094-.918-.187-1.941.04-2.477.355-.84 4.105-2.925 4.234-2.617.132.305.078 2.028.148 2.996.273 3.618 1.047 7.309 2.11 10.11 1.163 3.074 2.554 4.773 3.94 4.773.7 0 1.794-1.511 2.755-5.742.863-3.848 1.367-6.45 1.367-11.398 0-4.352-.73-10.895-1.645-11.832l-.101.07c-2.942 2.101-6.602 4.707-11.848 4.707-4.004 0-5.43-3.926-5.43-7.602 0-2.265 1.149-5.476 2.926-8.18 1.992-3.038 4.313-4.777 6.367-4.784 2.153 0 4.852 1.66 6.114 3.195.746.91 1.082 2.722.629 3.398-.465.684-1.66 1.282-2.985 1.5a2 2 0 0 1-.375.035c-.875 0-1.324-.55-1.715-1.039q-.15-.19-.3-.355c-.887-.953-1.684-1.496-2.188-1.496-2.672 0-4.531 3.879-4.531 7.363 0 3.414 3.894 3.512 3.933 3.512 2.094 0 5.184-.805 7.043-1.836 2.004-1.11 3.035-1.8 4.082-2.75a.65.65 0 0 1 .45-.184c1.336 0 2.77 4.266 3.175 5.57 1.102 3.54 1.305 7.52 1.305 10.645 0 3.578-.46 8.016-1.754 12.727C84.027 56.09 81.762 59 78.985 59M95.793 13.75c1.82 0 3.125.883 3.125 1.938 0 3.398-3.273 5.183-7.723 5.246.164-4.223 2.461-7.184 4.598-7.184m13.187 12.242c-.457.434-1.828 1.645-3.847 2.637-2.028.996-3.422 1.437-6.852 1.113-4.523-.422-6.797-3.222-7.015-6.582 6.457 0 11.996-2.77 11.996-8.566 0-2.219-1.867-4.344-6.633-4.344-3.832 0-10.031 4.367-10.031 12.46 0 8.095 5.886 11 9.718 11.126 6.118.195 10.735-3 12-5.106.286-.472 1.364-3.414.657-2.746" style="stroke:none;fill-rule:nonzero;fill:#a01832;fill-opacity:1"/></svg>
